X: 40328
T: Tom Billy's Favourite
R: slide
M: 12/8
K: Dmajor
|:d3 e2d BAB d2B|A3 AGA B2A G2A|
d3 e2d BAB d2B|AGA B2A G3 G2A:|
|:d3 def gag fgf|efe edB e2A A2B|
d3 def g3 f3|e3 def g3 g3:|

